X: 1
T: John Doherty's
T: Sporting Paddy
M: 4/4
L: 1/8
R: reel
S: Altan - Blackwater
K: Ador
EAAF GABG|EAAG E2DG|EAAF GABd|1 egdB BAAG:|2 egdB BAAa||
geeg dBBa|gefg a2ba|geeg dBBf|~g3e dfef|
geeg dBBa|gefg a2ga|bgaf gfed|egdB cBAG||
